X:1
T:Fanny Blair
M:4/4
L:1/8
K:D
D/2-E/2| FF F E/2E/2 F2 DE| FA Bc d3 c|c-B Bdc-A F^G|(3A3.99999962500005/5.99999925000009A3.99999962500005/5.99999925000009^G3.99999962500005/5.99999925000009A3.99999962500005/5.99999925000009^G3.99999962500005/5.99999925000009A3.99999962500005/5.99999925000009 BB B3|\
 A/2A/2| A^G ABB-A F A/2A/2|B-c dc B3 F/2=G/2| AA BAF-E F D/2D/2|E-F DD D3||\
